!!!!SEGMENT: pl-wumfc--r282--002-012_paderewski-ignacy-jan--exercises-2-exercise-12.krn
!!!cenid: 18xx:3187
!!!COM: Paderewski, Ignacy Jan
!!!COM-rismID: pe30029943
!!!CDT: 1860/11/18-1941/06/29
!!!CNT: Polish
!!!GTL: [Exercises 2]
!!!OTL: [Exercise] 12
!!!OMV: 012
!!!PDT:
!!!AGN:
!!!YEC: Copyright 2022 Narodowy Instytut Fryderyka Chopina (https://polishscores.org)
!!!YEM: License CC-BY-4.0 (https://creativecommons.org/licenses/by/4.0)
!!!SMS-siglum: PL-Wumfc
!!!SMS-shelfmark: R282
!!!SMS-shelfwork: 002-012 G
!!!SMS-variant:
!!!SMS-altvar:
!!!NIFC-rismSourceID: 1001158933
!!!NIFC-rismChildID: 1001158933
!!!NIFC-islandoraID: pl-wumfc:419
!!!URL-pdf-islandora: https://repozytorium.nifc.pl/islandora/object/pl-wumfc%3A419/datastream/PDF/view
!!!URL-scan: https://polish.musicsources.pl/pl/lokalizacje/galeria/rekopisy/4702 @EN{Scan on Polish Music Sources Website} @PL{Skany w portalu Dziedzictwo Muzyki Polskiej w otwartym dostępie}
!!!IIIF:
!!!ONB-nifc: UWAGA: druga grupa ćwiczeń od skanu 0008
!!!AIN: 1 piano
!!!key: C
**kern	**kern
*group1	*group1
*part1	*part1
*staff2	*staff1
*I"[Pianoforte]	*I"[Pianoforte]
*I'	*I'
*mI"Pianoforte	*mI"Pianoforte
*mI'pf	*mI'pf
*Ipiano	*Ipiano
*ICklav	*ICklav
*IGsolo	*IGsolo
*clefF4	*clefG2
*k[]	*k[]
*C:	*C:
!LO:MO:mod=*M2/2	!LO:MO:mod=*M2/2
*M	*M
!LO:MO:mod=*met(c|)	!LO:MO:mod=*met(c|)
*	*
*mmet(c|)	*mmet(c|)
*^	*^
!	!	!LO:TX:a:t=C. f	!
2GG\	8G/L	2g/	8B\L
.	8A/	.	8c\
.	8B/	.	8B\
.	8A/J	.	8A\J
*	*	*v	*v
=1	=1	=1
2E\	8G/L	2g/
.	8F/	.
.	8G/	.
.	8A/J	.
2D\	8B/L	2f/
.	8c/	.
.	8d/	.
.	8F/J	.
=2	=2	=2
2C\	8G/L	2e/
.	8F/	.
.	8G/	.
.	8A/J	.
2D\	8B/L	2d/
.	8c/	.
.	8B/	.
.	8A/J	.
=3	=3	=3
*	*	*^
!	!	!	!LO:N:vis=16
2E\	8G/L	2g/	8G\LL
!	!	!	!LO:N:vis=16
.	8g/	.	8A\
!	!	!	!LO:N:vis=16
.	8f/	.	8B\
!	!	!	!LO:N:vis=16
.	8e/J	.	8e\JJ
2F\	8d/L	2a/	2ryy
.	8e/	.	.
.	8d/	.	.
.	8c/J	.	.
=4	=4	=4	=4
!	!LO:SIC:s=2B/	!	!
2G;\	2B;/	2r;yy	2b;>/
2G\	2ryy	2b/	8g\L
.	.	.	8f\
.	.	.	8e\
.	.	.	8d\J
*v	*v	*	*
!!LO:LB:g=original
=5	=5	=5
2G\	2b/	8e\L
.	.	8f\
.	.	8g\
.	.	8f\J
2GG\	2b/	8e\L
.	.	8f\
.	.	8e\
.	.	8d\J
=6	=6	=6
2AA\	2a/	8c\L
.	.	8B\
.	.	8A\
.	.	8f\J
2C\	2g/	8e\L
.	.	8f\
.	.	8e\
.	.	8d\J
=7	=7	=7
2E\	2cc/	8c\L
.	.	8d\
.	.	8e\
.	.	8f\J
2E\	2b/	8g\L
.	.	8f\
.	.	8e\
.	.	8d\J
=8	=8	=8
!	!	!LO:SIC:s=2c
2A;\	2a;/	2c;\
2E\	2g/	8e\L
.	.	8f\
.	.	8e\
.	.	8d\J
=9	=9	=9
2A\	2a/	8c\L
.	.	8d\
.	.	8e\
!	!	!J
.	.	8f\J
2G\	2b/	8g\L
.	.	8f\
.	.	8e\
.	.	8d\J
=10	=10	=10
2A\	2a/	8c\L
.	.	8B\
.	.	8c\
.	.	8d\J
2E\	2g/	8e\L
.	.	8f\
.	.	8e\
.	.	8B\J
*	*v	*v
!!LO:LB:g=original
=11	=11
*^	*
2A\	8c/L	2e/
.	8B/	.
.	8c/	.
.	8e/J	.
2D\	8d/L	2f/
.	8e/	.
.	8d/	.
.	8c/J	.
=12	=12	=12
!	!LO:SIC:s=2B/	!
2G;\	2B;/	2g;/
2G\	8B/L	2dd\
.	8A/	.
.	8B/	.
.	8G/J	.
=13	=13	=13
2G\	8g/L	2b/
.	8f/	.
.	8e/	.
.	8d/J	.
2E\	8e/L	2g/
.	8f/	.
.	8e/	.
.	8d/J	.
=14	=14	=14
*	*	*^
2A\	8c/L	2a/	2ryy
.	8B/	.	.
.	8c/	.	.
.	8d/J	.	.
2AA\	2ryy	2cc/	8e\L
.	.	.	8d\
.	.	.	8e\
.	.	.	8f\J
*v	*v	*	*
=15	=15	=15
2BB\	2b/	8g\L
.	.	8f\
.	.	8g\
.	.	8d\J
2D\	2a/	8f\L
.	.	8e\
.	.	8d\
.	.	8c\J
=16	=16	=16
!LO:N:vis=2.	!	!LO:SIC:s=2B
2GG;\	2g;/	2B;\
*	*v	*v
==	==
*-	*-
!!!system-decoration: {(g1)}
!!!RDF**kern: > = above
!!!RDF**kern: < = below
!!!filter-modern: sic -sq | shed -k -e "s/LO:N:vis/LO:n:vis:/L" | shed -e "s/TX(.*):t=P:/tx$1:t=P:/LG" |  modori -m
!!!ENC: Katarzyna Serwa
!!!END: 2021-11-16
!!!EED: Anastazja Marusiak
!!!EEV: 2021-11-12
!!!ENC-modern: Andrzej Borzym
!!!END-modern: 2022-08-29
